X: 10583
T: Double Espresso
R: jig
M: 6/8
K: Dmixolydian
"D"D3 DCA,|DCD A3|"Am"AGA c3|"G"BGB cGE|
"D"D2D DCA,|DFG ABc|"D"D>Dd D>Dc|1 "G"D>DB "C"cGE:|2 "D"D>DB A2B||
"Am"c2A A>GE|c2A A>GE|"F"G2G- GGA|"C"G2E DEG|
"Am"c2A A>GE|c2A A>GE|"F"c2c- "G"ccd|"C"e2G DEG|
"Am"c2A A>GE|c2A A>GE|"F"c2c GAc|"D"d3 G2A-|
"A"A>Aa A>Ag|A>Af A>Ae|^c>BA BAG|EAE DCA,||

